X: 93
T: Anlatayım Halimi Dildâre Ben
C: Tanburî Ali Efendi
O: Turkey
F: http://compmusic.upf.edu/node/140
N: rast--sarki--curcuna--anlatayim_halimi--tanburi_ali_efendi
N: makam= rast
N: form= sarki
N: usul= curcuna = 10/8
M: 10/8
L: 1/16
K: C _1/4B ^f  
Q: 1/4=180
%%MIDI tuningsystem comma53
G8-G2A8-A2  | B8-B2c8z2  | d4 c2B4c4B2 A4  | \
w:  Hey   |   |  hey   | 
B4 A2G4d3cd6  | B3A B2c2 d2B2 A2G6  | 
w:   |  hey    | 
D4 B2A2 G2A2 F2G4z2  | G6d4d4d4c2  | \
w:  SAZ  |  An la ta yım   | 
c4 d2e4e2 d2d4c2  | c4 d2e4{=f}e2 d2d4z2  | 
w:  ha *  li mi  *  dil  |  dâ *  re  *  ben    | 
d2c2 B2d4c2 {e}d2c4B2  | z4 e2=f4f3ee4d2  | \
w:  Hey   |  hey   | 
z4 d2e4e3dd4c2  | 
w:  hey   | 
d4 c2B4^A2 B2c2 {d}c2B2  | B18A2  | A6B4c4{e}d6  | \
w:  hey   |  hey    |  Derd_ i  fi *  ra  | 
d4 {g}=f2e2 d2d2 c2c4B2  | 
w:  ka  *  *  a *  ra *  yım   | 
A2B2 c2B3AA8-A2  | z4 B2c8{d}c2 B2A2  | \
w:  ça *  *  re  *  ben    |  Hey   | 
z4 c2d4d2 c2c4B2  | A4 B2c2 d2B2 A2G4z2  | 
w:  hey   |  hey   | 
g8-g2=f2 e2d4c2  | B3A B2c2 d2B2 A2G6  | \
w:  hey   |  hey    | 
d4 e2f2 g2f2 a2g6  | 
w:  SAZ  | 
e6f4g2 f2g6  | g2f2 g2a4{b}a2 g2g4f2  | \
w:  Sab re de *  yim   |  ni *  *  ce  *  bir  *  â  | 
f2^e2 f2g4f2 e2f4z2  | 
w:  zâ *  *  re  ben    | 
e8-e2f8-f2  | g8-g2a4g2 f4  | g4 =f2e4f4e2 d4  | \
w:  Hey   |   |   | 
g4 ^3/4f2e2 f2a2 g2=f3ed2  | 
w:  hey   | 
d2e2 =f2e3dd2 c2{c}B4z2  | A6B4c4{e}d6  | \
w:  hey    |  Derd_ i  fi *  ra  | 
d4 {g}=f2e2 d2d2 c2c4B2  | 
w:  ka  *  *  a *  ra *  yım   | 
A2B2 c2B3AA8-A2  | z4 B2c8{d}c2 B2A2  | \
w:  ça *  *  re  *  ben    |  Hey   | 
z4 c2d4d2 c2c4B2  | A4 B2c2 d2B2 A2G4z2  | 
w:  hey   |  hey   | 
g8-g2=f2 e2d4c2  | B3A B2c2 d2B2 A2G6  | |


